!!!OTL: Herzog Ernst. / c. Herzog Ernsts Ton gekuerzt (Babsts Gsgb. 1561 II. No. 58).
!!!ARE: Europa, Mitteleuropa, Deutschland
!!!SCT: A0004C
!!!TXL: @@DE
!!!YEM: Copyright 1995, estate of Helmut Schaffrath.
**kern	**text
*M4/1yy	*
*k[]	*
*clefC4	*
*e:	*
{0A	Es
=1	=1
!LO:N:vis=0	!
1A	was
!LO:N:vis=0	!
1E	.
1A	.
1A	ein-
=2	=2
1A	-mal
1B	ein
1c	rei-
1c	-cher
=3	=3
!LO:N:vis=0	!
1B	Man
!LO:N:vis=0	!
1A	.
1r}	.
{1c	mit
=4	=4
!LO:TX:a:t=..	!
1c	Sammet
1c	und
1c	ſei-
1c	-den
=5	=5
1d	an-
1c	-ge-
1B}	-tan,
{1A	er
=6	=6
1c	fürt
1B	ein
1A	ʒeit-
1A	-lichs
=7	=7
1E	le-
1E}	-ben,
{0A	Sein
=8	=8
!LO:N:vis=0	!
1A	hertʒ
!LO:N:vis=0	!
1E	.
1A	.
1A	das
=9	=9
1A	ſtrebt
1B	nach
1c	groſ-
1c	-ſer
=10	=10
!LO:N:vis=0	!
1B	ehr,
!LO:N:vis=0	!
1A	.
1r}	.
{1c	ſein
=11	=11
!LO:TX:a:t=..	!
1c	Leib
1c	ʒie-
1c	-ret
1c	vnd
=12	=12
1d	me-
1c	-ſtet
1B}	er,
{1A	ließ
=13	=13
1c	ihm
1B	das
1A	be-
1A	-ſte
=14	=14
1E	ge-
1E}	-ben,
!LO:N:vis=0	!
{1B	Gar
!LO:N:vis=0	!
1d	.
=15	=15
1c	kößt-
1B	-lich
1A	was
1G	er-
=16	=16
1G	-bawt
1G	ſein
!LO:N:vis=0	!
1E	haus
!LO:N:vis=0	!
1C}	.
=17	=17
{1r	.
1G	er
1G	meint
1G	er
=18	=18
1G	wolt
1G	gar
1G	nim-
1A	-mer
=19	=19
1G	draus,
1r}	.
{1A	da-
1B	-rumb
=20	=20
1c	lebt
1B	er
!LO:N:vis=0	!
1A	all-
!LO:N:vis=0	!
1G	.
=21	=21
!LO:N:vis=0	!
1A	-ʒeit
0E	.
1F	im
=22	=22
0E/ll}	ſaus.
==	==
!!!GTL: Balladen und Romanzen (erzählende Volkslieder)
!!!AGN: Romanze, Ballade, Lied
!!!ONB: ESAC (Essen Associative Code) Database: ALTDEU
!!!AMT: simple quadruple
!!!AIN: vox
!!!EED: Helmut Schaffrath
!!!EEV: 1.0
!!!RDF**kern: l = terminal long
!!!URL-scan: https://rosdok.uni-rostock.de/mcrviewer/recordIdentifier/rosdok_ppn738218359/iview2/phys_0091.iview2?x=-1950.765460910152&y=-4.093348891474307&scale=0.2442987457240593&rotation=0&layout=singlePageLayout&logicalDiv=log_0007
!!!ENC: Anna Maria Matuszewska
!!!EEV: 2024/16/02
*-	*-
